src/images/svg/be-square/business-intelligence.svg

<svg width="48" height="48" viewBox="0 0 48 48" fill="none" xmlns="http://www.w3.org/2000/svg">
<path fill-rule="evenodd" clip-rule="evenodd" d="M21.7486 16.8761C20.1978 16.8761 18.9361 18.1379 18.9361 19.6886C18.9361 21.2393 20.1978 22.5011 21.7486 22.5011C23.2993 22.5011 24.5611 21.2393 24.5611 19.6886C24.5611 18.1379 23.2993 16.8761 21.7486 16.8761ZM21.7486 21.3761C20.818 21.3761 20.0611 20.6191 20.0611 19.6886C20.0611 18.7581 20.818 18.0011 21.7486 18.0011C22.6791 18.0011 23.4361 18.7581 23.4361 19.6886C23.4361 20.6191 22.6791 21.3761 21.7486 21.3761Z" fill="#FF444F"/>
<path fill-rule="evenodd" clip-rule="evenodd" d="M26.2958 21.9095L26.7138 22.9085C26.7918 23.0952 26.7633 23.3097 26.6391 23.4699C26.3178 23.8851 25.9448 24.2584 25.5301 24.5795C25.3697 24.7039 25.1543 24.7313 24.9687 24.6539L23.9695 24.2361C23.7843 24.3262 23.5921 24.4056 23.3938 24.4734L22.9818 25.477C22.9049 25.6646 22.7335 25.7962 22.5324 25.8217C22.2391 25.8588 21.9903 25.8761 21.7486 25.8761C21.5069 25.8761 21.258 25.8588 20.9647 25.8217C20.7636 25.7962 20.5923 25.6646 20.5154 25.477L20.1034 24.4734C19.9056 24.4056 19.7134 24.3262 19.5277 24.2361L18.5285 24.6539C18.3423 24.7314 18.1269 24.7039 17.9671 24.5795C17.5523 24.2584 17.1794 23.8851 16.858 23.4699C16.7339 23.3097 16.7053 23.0955 16.7833 22.9085L17.2008 21.9095C17.1107 21.7241 17.0316 21.5316 16.9635 21.3336L15.9599 20.9219C15.7726 20.845 15.6413 20.673 15.6154 20.4723C15.5781 20.1789 15.5611 19.9301 15.5611 19.6887C15.5611 19.4473 15.5781 19.1984 15.6154 18.9051C15.6413 18.7043 15.7725 18.5324 15.9599 18.4555L16.9635 18.0438C17.0316 17.8455 17.1112 17.6529 17.2013 17.4675L16.7833 16.4686C16.7053 16.2816 16.7339 16.0671 16.858 15.9069C17.1793 15.4922 17.5523 15.1192 17.9671 14.7979C18.1269 14.6732 18.3423 14.6457 18.5285 14.7235L19.5277 15.1412C19.7133 15.0511 19.9056 14.9717 20.1034 14.9039L20.5153 13.9003C20.5923 13.7127 20.7636 13.5812 20.9647 13.5556C21.5514 13.4815 21.9458 13.4815 22.5324 13.5556C22.7335 13.5812 22.9049 13.7127 22.9818 13.9003L23.3938 14.9039C23.5915 14.9717 23.7838 15.0511 23.9695 15.1412L24.9687 14.7235C25.1543 14.6457 25.3697 14.6732 25.5301 14.7979C25.9448 15.119 26.3178 15.4922 26.6391 15.9075C26.7633 16.0676 26.7918 16.2818 26.7138 16.4689L26.2964 17.4678C26.3864 17.6532 26.4655 17.8457 26.5337 18.0438L27.5373 18.4555C27.7246 18.5324 27.8559 18.7043 27.8817 18.9051C27.919 19.1984 27.9361 19.4473 27.9361 19.6887C27.9361 19.9301 27.919 20.1789 27.8817 20.4723C27.8559 20.673 27.7246 20.845 27.5373 20.9219L26.5337 21.3336C26.4655 21.5319 26.3859 21.7244 26.2958 21.9095ZM25.5345 20.7601C25.5811 20.5939 25.702 20.4585 25.8618 20.3929L26.7984 20.0086C26.8072 19.896 26.8111 19.7908 26.8111 19.6887C26.8111 19.5865 26.8072 19.4813 26.7984 19.3687L25.8618 18.9845C25.702 18.9188 25.5811 18.7834 25.5344 18.6172C25.4493 18.3165 25.3317 18.0311 25.1845 17.7688C25.1005 17.618 25.09 17.4368 25.1565 17.2772L25.5449 16.348C25.4026 16.1868 25.2504 16.0344 25.0895 15.8924L24.16 16.281C24.0002 16.3475 23.8189 16.3368 23.6684 16.2527C23.4053 16.1058 23.1202 15.988 22.8203 15.9028C22.6538 15.8559 22.5187 15.735 22.4533 15.5752L22.0688 14.6386C21.8436 14.6221 21.6535 14.6221 21.4283 14.6386L21.0438 15.5752C20.9784 15.735 20.8433 15.8559 20.6768 15.9028C20.3769 15.988 20.0918 16.1058 19.8287 16.2527C19.6771 16.3368 19.4969 16.3475 19.3371 16.281L18.4076 15.8924C18.2467 16.0344 18.0945 16.1865 17.9522 16.3478L18.3412 17.2772C18.4076 17.437 18.3972 17.6186 18.3126 17.7697C18.1659 18.0309 18.0484 18.3162 17.9627 18.6172C17.916 18.7834 17.7951 18.9188 17.6353 18.9845L16.6987 19.3687C16.6899 19.4813 16.6861 19.5865 16.6861 19.6887C16.6861 19.7908 16.6899 19.896 16.6987 20.0086L17.6353 20.3929C17.7952 20.4585 17.916 20.5939 17.9627 20.7601C18.0478 21.0609 18.1654 21.3462 18.3126 21.6085C18.3967 21.7593 18.4071 21.9406 18.3406 22.1001L17.9523 23.0293C18.0945 23.1905 18.2467 23.343 18.4076 23.485L19.3371 23.0963C19.4969 23.0299 19.6771 23.0406 19.8287 23.1246C20.0918 23.2716 20.3769 23.3894 20.6769 23.4745C20.8433 23.5215 20.9784 23.6423 21.0438 23.8022L21.4283 24.7388C21.6535 24.7552 21.8436 24.7552 22.0688 24.7388L22.4533 23.8022C22.5187 23.6423 22.6538 23.5215 22.8203 23.4745C23.1213 23.3891 23.4064 23.2716 23.6679 23.1249C23.8189 23.04 24.0002 23.0299 24.1601 23.0963L25.0895 23.485C25.2505 23.343 25.4026 23.1908 25.5449 23.0293L25.156 22.1001C25.0895 21.9406 25.0999 21.7587 25.1845 21.6077C25.3312 21.3465 25.4488 21.0611 25.5345 20.7601Z" fill="#FF444F"/>
<path d="M14.7343 23.2722L13.7335 23.7853C13.4561 23.2436 13.2336 22.6729 13.0721 22.0884C12.8573 21.3108 12.7486 20.5033 12.7486 19.6887C12.7486 14.7261 16.786 10.6886 21.7486 10.6886H26.0157L25.2884 9.96131L26.0838 9.16589L27.7713 10.8534C27.991 11.0731 27.991 11.4291 27.7713 11.6488L26.0838 13.3363L25.2884 12.5409L26.0157 11.8136H21.7486C17.4062 11.8136 13.8736 15.3463 13.8736 19.6887C13.8736 20.4023 13.9686 21.109 14.1565 21.789C14.2976 22.2999 14.4921 22.7987 14.7343 23.2722Z" fill="#FF444F"/>
<path d="M15.2747 24.171L14.3496 24.8121C14.8055 25.4693 15.3472 26.064 15.9608 26.5798L16.6848 25.7184C16.1475 25.2669 15.6729 24.7464 15.2747 24.171Z" fill="#FF444F"/>
<path d="M23.8407 28.4439L23.5803 27.3496C24.2609 27.1876 24.9179 26.9344 25.5326 26.5968L26.0742 27.5828C25.3705 27.969 24.6196 28.2588 23.8407 28.4439Z" fill="#FF444F"/>
<path d="M16.9278 27.2889C17.6045 27.7193 18.3357 28.0569 19.1009 28.2923L19.4315 27.2167C18.7625 27.0113 18.1236 26.716 17.532 26.3397L16.9278 27.2889Z" fill="#FF444F"/>
<path d="M22.5462 27.5232L22.6593 28.6427C22.36 28.6727 22.0567 28.6881 21.7568 28.6881C21.2794 28.6815 20.7581 28.6474 20.2698 28.5667L20.4533 27.457C20.8806 27.5276 21.3195 27.5837 21.7563 27.5631C22.0194 27.5631 22.2847 27.5496 22.5462 27.5232Z" fill="#FF444F"/>
<path fill-rule="evenodd" clip-rule="evenodd" d="M14.436 40.5014C14.1251 40.5014 13.8735 40.2495 13.8735 39.9389C13.8735 36.5109 12.8957 33.3224 11.045 30.7181C8.92413 27.7331 7.95898 24.0617 8.32648 20.3805C9.0307 13.3218 14.6552 7.63059 21.6996 6.84809C26.0864 6.36085 30.3002 7.69981 33.5615 10.6191C36.7635 13.4852 38.6064 17.5861 38.6235 21.8788L40.2983 29.6961C40.334 29.8623 40.2928 30.0356 40.1857 30.1677C40.0792 30.2998 39.9182 30.3764 39.7485 30.3764H36.3735V37.1264C36.3735 37.437 36.1219 37.6889 35.811 37.6889H29.061V39.9389C29.061 40.2495 28.8094 40.5014 28.4985 40.5014H14.436ZM21.8237 7.96595C15.3033 8.6905 10.098 13.9584 9.44599 20.4923C9.10541 23.903 9.99914 27.3033 11.9624 30.0666C13.8466 32.7187 14.8881 35.927 14.9902 39.3764H27.936V37.6889H26.2485V36.5639H35.2485V29.8139C35.2485 29.5033 35.5001 29.2514 35.811 29.2514H39.0525L37.5111 22.0567C37.5029 22.018 37.4985 21.9785 37.4985 21.9389C37.4985 17.944 35.7901 14.1238 32.8112 11.4574C29.7916 8.75449 25.8914 7.51606 21.8237 7.96595Z" fill="#FF444F"/>
</svg>

<svg xmlns="http://www.w3.org/2000/svg" width="48" height="48" fill="none"  xmlns:v="https://vecta.io/nano"><path d="M21.749 16.876c-1.551 0-2.812 1.262-2.812 2.813s1.262 2.813 2.813 2.813 2.813-1.262 2.813-2.812-1.262-2.812-2.812-2.812zm0 4.5a1.69 1.69 0 0 1-1.687-1.687 1.69 1.69 0 0 1 1.688-1.687 1.69 1.69 0 0 1 1.688 1.688 1.69 1.69 0 0 1-1.687 1.688zm4.547.534l.418.999a.56.56 0 0 1-.075.561 6.21 6.21 0 0 1-1.109 1.11c-.16.124-.376.152-.561.074l-.999-.418a5.05 5.05 0 0 1-.576.237l-.412 1.004a.56.56 0 0 1-.449.345c-.293.037-.542.054-.784.054s-.491-.017-.784-.054a.56.56 0 0 1-.449-.345l-.412-1.004a5.13 5.13 0 0 1-.576-.237l-.999.418a.56.56 0 0 1-.561-.074c-.415-.321-.788-.694-1.109-1.11a.56.56 0 0 1-.075-.561l.418-.999a5.15 5.15 0 0 1-.237-.576l-1.004-.412c-.187-.077-.319-.249-.344-.45-.037-.293-.054-.542-.054-.784s.017-.49.054-.784c.026-.201.157-.373.345-.45l1.004-.412c.068-.198.148-.391.238-.576l-.418-.999c-.078-.187-.049-.401.075-.562a6.23 6.23 0 0 1 1.109-1.109.56.56 0 0 1 .561-.074l.999.418a5.12 5.12 0 0 1 .576-.237l.412-1.004a.56.56 0 0 1 .449-.345c.587-.074.981-.074 1.568 0a.56.56 0 0 1 .449.345l.412 1.004c.198.068.39.147.576.237l.999-.418a.56.56 0 0 1 .561.074 6.21 6.21 0 0 1 1.109 1.11.56.56 0 0 1 .075.561l-.417.999a5.18 5.18 0 0 1 .237.576l1.004.412c.187.077.319.249.344.45.037.293.054.542.054.784a6.11 6.11 0 0 1-.054.784c-.026.201-.157.373-.344.45l-1.004.412c-.068.198-.148.391-.238.576zm-.761-1.149a.56.56 0 0 1 .327-.367l.937-.384.013-.32-.013-.32-.937-.384a.56.56 0 0 1-.327-.367 3.91 3.91 0 0 0-.35-.848c-.084-.151-.095-.332-.028-.492l.388-.929a5.18 5.18 0 0 0-.455-.456l-.93.389c-.16.067-.341.056-.492-.028a3.96 3.96 0 0 0-.848-.35.56.56 0 0 1-.367-.328l-.384-.937a4.15 4.15 0 0 0-.64 0l-.384.937a.56.56 0 0 1-.367.328 3.96 3.96 0 0 0-.848.35c-.152.084-.332.095-.492.028l-.93-.389a5.14 5.14 0 0 0-.455.455l.389.929c.066.16.056.341-.029.492a3.93 3.93 0 0 0-.35.848.56.56 0 0 1-.327.367l-.937.384-.013.32.013.32.937.384a.56.56 0 0 1 .327.367 3.9 3.9 0 0 0 .35.848c.084.151.095.332.028.492l-.388.929c.142.161.294.314.455.456l.93-.389c.16-.066.34-.056.492.028a3.95 3.95 0 0 0 .848.35.56.56 0 0 1 .367.328l.384.937c.225.016.415.016.64 0l.384-.937a.56.56 0 0 1 .367-.328 3.92 3.92 0 0 0 .848-.35c.151-.085.332-.095.492-.029l.929.389a5.02 5.02 0 0 0 .455-.456l-.389-.929c-.066-.16-.056-.341.029-.492a3.93 3.93 0 0 0 .35-.848z" fill-rule="evenodd" fill="#ff444f"/><path d="M14.734 23.272l-1.001.513a8.96 8.96 0 0 1-.661-1.697 9.01 9.01 0 0 1-.324-2.4c0-4.963 4.037-9 9-9h4.267l-.727-.727.795-.795 1.688 1.688a.56.56 0 0 1 0 .795l-1.687 1.688-.795-.795.727-.727h-4.267c-4.342 0-7.875 3.533-7.875 7.875a7.88 7.88 0 0 0 .283 2.1c.141.511.336 1.01.578 1.483zm.541.899l-.925.641c.456.657.998 1.252 1.611 1.768l.724-.861a7.88 7.88 0 0 1-1.41-1.547zm8.566 4.273l-.26-1.094c.681-.162 1.338-.415 1.952-.753l.542.986c-.704.386-1.455.676-2.234.861zm-6.913-1.155a8.96 8.96 0 0 0 2.173 1.003l.331-1.076c-.669-.205-1.308-.501-1.899-.877l-.604.949zm5.618.234l.113 1.12-.903.045c-.477-.007-.999-.041-1.487-.121l.183-1.11c.427.071.866.127 1.303.106a7.89 7.89 0 0 0 .79-.04z" fill="#ff444f"/><path fill-rule="evenodd" d="M14.436 40.501c-.311 0-.562-.252-.562-.562 0-3.428-.978-6.616-2.828-9.221-2.121-2.985-3.086-6.656-2.719-10.338.704-7.059 6.329-12.75 13.373-13.532 4.387-.487 8.601.852 11.862 3.771a15.21 15.21 0 0 1 5.062 11.26l1.675 7.817a.56.56 0 0 1-.55.68h-3.375v6.75c0 .311-.252.563-.562.563h-6.75v2.25c0 .311-.252.563-.562.563H14.436zm7.388-32.535c-6.52.725-11.726 5.992-12.378 12.526-.341 3.411.553 6.811 2.516 9.574 1.884 2.652 2.926 5.86 3.028 9.31h12.946v-1.687h-1.687v-1.125h9v-6.75c0-.311.252-.562.563-.562h3.242l-1.541-7.195a.57.57 0 0 1-.013-.118c0-3.995-1.708-7.815-4.687-10.481-3.02-2.703-6.92-3.941-10.987-3.491z" fill="#ff444f"/></svg>
